resources/svg/minor-tick-small.svg

<svg xmlns="http://www.w3.org/2000/svg" viewBox="0 0 20 20" fill="currentColor"><path d="M14.7232 6.23741C15.0707 6.57449 15.0942 7.14584 14.7756 7.51356L9.40976 13.7071C9.25243 13.8887 9.03181 13.9944 8.79903 13.9998C8.56625 14.0051 8.3415 13.9097 8.17686 13.7355L5.25003 10.6387C4.91666 10.2859 4.91666 9.71406 5.25003 9.36133C5.5834 9.00859 6.12391 9.00859 6.45729 9.36133L8.75367 11.791L13.5171 6.2929C13.8356 5.92518 14.3756 5.90034 14.7232 6.23741Z" fill="#5C5F62"/></svg>

<svg xmlns="http://www.w3.org/2000/svg" viewBox="0 0 20 20" fill="currentColor"><path d="M14.723 6.237a.94.94 0 0 1 .053 1.277l-5.366 6.193a.834.834 0 0 1-.611.293.83.83 0 0 1-.622-.264l-2.927-3.097a.94.94 0 0 1 0-1.278.82.82 0 0 1 1.207 0l2.297 2.43 4.763-5.498a.821.821 0 0 1 1.206-.056Z"/></svg>
